icons/circle/48/umbrello.svg

<svg xmlns="http://www.w3.org/2000/svg" viewBox="0 0 48 48">
 <defs>
  <linearGradient id="linearGradient3845" y1="47" x2="0" y2="1" gradientUnits="userSpaceOnUse">
   <stop style="stop-color:#f0e8cc;stop-opacity:1"/>
   <stop offset="1" style="stop-color:#f5efdb;stop-opacity:1"/>
  </linearGradient>
 </defs>
 <g>
  <path d="m 36.31 5 c 5.859 4.062 9.688 10.831 9.688 18.5 c 0 12.426 -10.07 22.5 -22.5 22.5 c -7.669 0 -14.438 -3.828 -18.5 -9.688 c 1.037 1.822 2.306 3.499 3.781 4.969 c 4.085 3.712 9.514 5.969 15.469 5.969 c 12.703 0 23 -10.298 23 -23 c 0 -5.954 -2.256 -11.384 -5.969 -15.469 c -1.469 -1.475 -3.147 -2.744 -4.969 -3.781 z m 4.969 3.781 c 3.854 4.113 6.219 9.637 6.219 15.719 c 0 12.703 -10.297 23 -23 23 c -6.081 0 -11.606 -2.364 -15.719 -6.219 c 4.16 4.144 9.883 6.719 16.219 6.719 c 12.703 0 23 -10.298 23 -23 c 0 -6.335 -2.575 -12.06 -6.719 -16.219 z" style="opacity:0.05"/>
  <path d="m 41.28 8.781 c 3.712 4.085 5.969 9.514 5.969 15.469 c 0 12.703 -10.297 23 -23 23 c -5.954 0 -11.384 -2.256 -15.469 -5.969 c 4.113 3.854 9.637 6.219 15.719 6.219 c 12.703 0 23 -10.298 23 -23 c 0 -6.081 -2.364 -11.606 -6.219 -15.719 z" style="opacity:0.1"/>
  <path d="m 31.25 2.375 c 8.615 3.154 14.75 11.417 14.75 21.13 c 0 12.426 -10.07 22.5 -22.5 22.5 c -9.708 0 -17.971 -6.135 -21.12 -14.75 a 23 23 0 0 0 44.875 -7 a 23 23 0 0 0 -16 -21.875 z" style="opacity:0.2"/>
 </g>
 <g>
  <path d="m 24 1 c 12.703 0 23 10.297 23 23 c 0 12.703 -10.297 23 -23 23 -12.703 0 -23 -10.297 -23 -23 0 -12.703 10.297 -23 23 -23 z" style="fill:url(#linearGradient3845);fill-opacity:1"/>
 </g>
 <g>
  <path d="m 40.03 7.531 c 3.712 4.084 5.969 9.514 5.969 15.469 0 12.703 -10.297 23 -23 23 c -5.954 0 -11.384 -2.256 -15.469 -5.969 4.178 4.291 10.01 6.969 16.469 6.969 c 12.703 0 23 -10.298 23 -23 0 -6.462 -2.677 -12.291 -6.969 -16.469 z" style="opacity:0.1"/>
 </g>
 <path d="m 25 12 c -0.552 0 -1 0.448 -1 1 l -12 10 0 2 12.5 0 0 9 -0.5 0 0 3.5 c 0 0.277 0.223 0.5 0.5 0.5 l 1 0 c 0.277 0 0.5 -0.223 0.5 -0.5 l 0 -3.5 -0.5 0 0 -9 12.5 0 0 -2 -12 -10 c 0 -0.552 -0.448 -1 -1 -1 z" style="fill:#000;fill-opacity:0.098;stroke:none"/>
 <g transform="translate(0,1)">
  <path d="m 27 20.5 6 0 0 2.5 -6 0 z" style="fill:#d8dee0;fill-opacity:1;stroke:none"/>
  <rect y="18" x="23.5" height="15" width="1" style="fill:#7d7d7d;fill-opacity:1;stroke:none"/>
  <path d="m 25,32 0,3.5 c 0,0.277 -0.223,0.5 -0.5,0.5 l -1,0 C 23.223,36 23,35.777 23,35.5 L 23,32 Z" style="fill:#424242;fill-opacity:1;stroke:none"/>
  <circle r="1" cy="11" cx="24" style="fill:#8c8c8c;fill-opacity:1;stroke:none"/>
  <path d="m 15 21 c 2.032 -0.416 4.03 -0.349 6 0 l 0 2 -6 0 z" style="fill:#d8dee0;fill-opacity:1;stroke:none"/>
  <path d="m 35 21 -22 0 10 -10 2 0 z" style="fill:#e1e9eb;fill-opacity:1;stroke:none;fill-rule:evenodd"/>
  <path d="m 20.5 21 c 0.5 -1 6.5 -1 7 0 l 0 2 -7 0 z" style="fill:#3d7389;fill-opacity:1;stroke:none"/>
  <path d="m 27.5 21 -7 0 3.25 -10 0.5 0 z" style="fill:#3f839f;fill-opacity:1;stroke:none;fill-rule:evenodd"/>
  <path d="m 11 21 4.25 -0.5 0 2.5 -4.25 0 z" style="fill:#3d7389;fill-opacity:1;stroke:none"/>
  <path d="M 15.25,21 11,21 23,11 l 0.25,0 z" style="fill:#3f839f;fill-opacity:1;stroke:none;fill-rule:evenodd"/>
  <path d="M 32.75,20.5 37,21 l 0,2 -4.25,0 z" style="fill:#3d7389;fill-opacity:1;stroke:none"/>
  <path d="m 32.75 21 4.25 0 -12 -10 -0.25 0" style="fill:#3f839f;fill-opacity:1;stroke:none;fill-rule:evenodd"/>
 </g>
</svg>

<svg xmlns="http://www.w3.org/2000/svg" viewBox="0 0 48 48">
  <defs>
    <linearGradient id="a" y1="47" x2="0" y2="1" gradientUnits="userSpaceOnUse">
      <stop stop-color="#f0e8cc"/>
      <stop offset="1" stop-color="#f5efdb"/>
    </linearGradient>
  </defs>
  <path d="M36.31 5c5.859 4.062 9.688 10.831 9.688 18.5 0 12.426-10.07 22.5-22.5 22.5-7.669 0-14.438-3.828-18.5-9.688a23.24 23.24 0 0 0 3.781 4.969 22.923 22.923 0 0 0 15.469 5.969c12.703 0 23-10.298 23-23a22.92 22.92 0 0 0-5.969-15.469A23.216 23.216 0 0 0 36.31 5zm4.969 3.781A22.911 22.911 0 0 1 47.498 24.5c0 12.703-10.297 23-23 23a22.909 22.909 0 0 1-15.719-6.219C12.939 45.425 18.662 48 24.998 48c12.703 0 23-10.298 23-23 0-6.335-2.575-12.06-6.719-16.219z" opacity=".05"/>
  <path d="M41.28 8.781a22.923 22.923 0 0 1 5.969 15.469c0 12.703-10.297 23-23 23A22.92 22.92 0 0 1 8.78 41.281 22.911 22.911 0 0 0 24.499 47.5c12.703 0 23-10.298 23-23A22.909 22.909 0 0 0 41.28 8.781z" opacity=".1"/>
  <path d="M31.25 2.375C39.865 5.529 46 13.792 46 23.505c0 12.426-10.07 22.5-22.5 22.5-9.708 0-17.971-6.135-21.12-14.75a23 23 0 0 0 44.875-7 23 23 0 0 0-16-21.875z" opacity=".2"/>
  <path d="M24 1c12.703 0 23 10.297 23 23S36.703 47 24 47 1 36.703 1 24 11.297 1 24 1z" fill="url(#a)"/>
  <path d="M40.03 7.531A22.922 22.922 0 0 1 45.999 23c0 12.703-10.297 23-23 23A22.92 22.92 0 0 1 7.53 40.031C11.708 44.322 17.54 47 23.999 47c12.703 0 23-10.298 23-23 0-6.462-2.677-12.291-6.969-16.469z" opacity=".1"/>
  <path d="M25 12a1 1 0 0 0-1 1L12 23v2h12.5v9H24v3.5c0 .277.223.5.5.5h1c.277 0 .5-.223.5-.5V34h-.5v-9H38v-2L26 13a1 1 0 0 0-1-1z" fill-opacity=".098"/>
  <g transform="translate(0 1)">
    <path d="M27 20.5h6V23h-6z" fill="#d8dee0"/>
    <path fill="#7d7d7d" d="M23.5 18h1v15h-1z"/>
    <path d="M25 32v3.5c0 .277-.223.5-.5.5h-1a.499.499 0 0 1-.5-.5V32z" fill="#424242"/>
    <circle r="1" cy="11" cx="24" fill="#8c8c8c"/>
    <path d="M15 21c2.032-.416 4.03-.349 6 0v2h-6z" fill="#d8dee0"/>
    <path d="M35 21H13l10-10h2z" fill="#e1e9eb" fill-rule="evenodd"/>
    <path d="M20.5 21c.5-1 6.5-1 7 0v2h-7z" fill="#3d7389"/>
    <path d="M27.5 21h-7l3.25-10h.5z" fill="#3f839f" fill-rule="evenodd"/>
    <path d="M11 21l4.25-.5V23H11z" fill="#3d7389"/>
    <path d="M15.25 21H11l12-10h.25z" fill="#3f839f" fill-rule="evenodd"/>
    <path d="M32.75 20.5L37 21v2h-4.25z" fill="#3d7389"/>
    <path d="M32.75 21H37L25 11h-.25" fill="#3f839f" fill-rule="evenodd"/>
  </g>
</svg>
